layout/main/dist/assets/main/img/projects/bg.svg

<svg width="1920" height="1543" viewBox="0 0 1920 1543" fill="none" xmlns="http://www.w3.org/2000/svg"><g opacity=".6"><path d="M41.466 709.013c-.16-23.72 8.022-43.711 24.547-59.973s36.129-24.47 58.812-24.623c31.251-.211 56.81 15.01 76.676 45.663l113.858 177.14c4.587 7.54 9.156 12.304 13.707 14.292 4.553 2.492 9.35 3.722 14.391 3.688 6.553-.044 12.332-2.607 17.339-7.688 5.006-5.081 7.482-11.658 7.428-19.733l-1.323-196.069 59.731-.403 1.466 217.265c.157 23.216-8.029 42.702-24.558 58.459-16.021 16.259-35.625 24.466-58.811 24.623-31.252.211-56.809-14.758-76.672-44.906L154.2 719.608c-4.588-7.54-9.159-12.556-13.712-15.049-4.55-1.988-9.346-2.965-14.386-2.931-6.553.044-12.333 2.607-17.339 7.688-5.007 5.081-7.481 11.911-7.423 20.49l1.394 206.667-59.73.403-1.538-227.863zm-66.174.441c-.16-23.719-8.612-43.596-25.355-59.633-16.743-16.036-36.456-23.978-59.138-23.825-31.252.211-56.603 15.775-76.054 46.691l-111.457 178.648c-4.485 7.6-8.989 12.425-13.512 14.474-4.52 2.554-9.3 3.848-14.341 3.882-6.552.044-12.366-2.44-17.441-7.452-5.074-5.013-7.639-11.556-7.693-19.63l-1.323-196.056-59.731.403 1.466 217.251c.156 23.214 8.604 42.586 25.344 58.118 16.239 16.04 35.951 23.982 59.138 23.825 31.252-.21 56.605-15.522 76.059-45.933l111.457-178.649c4.485-7.6 8.988-12.677 13.507-15.231 4.523-2.049 9.305-3.091 14.346-3.125 6.552-.044 12.366 2.44 17.44 7.453 5.075 5.012 7.642 11.808 7.7 20.387l1.394 206.653 59.73-.403-1.536-227.848z" fill="#FC466B"/><path d="M753.5 771.5c0 424.78-334.066 769-746 769s-746-344.22-746-769c0-424.779 334.066-769 746-769s746 344.221 746 769z" stroke="url(#paint0_linear)" stroke-width="5"/><path d="M1874.53 709.013c.16-23.72-8.02-43.711-24.54-59.973-16.53-16.262-36.13-24.47-58.81-24.623-31.26-.211-56.82 15.01-76.68 45.663l-113.86 177.14c-4.59 7.54-9.16 12.304-13.71 14.292-4.55 2.492-9.35 3.722-14.39 3.688-6.55-.044-12.33-2.607-17.34-7.688-5-5.081-7.48-11.658-7.42-19.733l1.32-196.069-59.73-.403-1.47 217.265c-.15 23.216 8.03 42.702 24.56 58.459 16.02 16.259 35.62 24.466 58.81 24.623 31.25.211 56.81-14.758 76.67-44.906l113.86-177.14c4.59-7.54 9.16-12.556 13.71-15.049 4.55-1.988 9.35-2.965 14.39-2.931 6.55.044 12.33 2.607 17.34 7.688 5 5.081 7.48 11.911 7.42 20.49l-1.39 206.667 59.73.403 1.53-227.863zm66.18.441c.16-23.719 8.61-43.596 25.35-59.633 16.75-16.036 36.46-23.978 59.14-23.825 31.25.211 56.6 15.775 76.05 46.691l111.46 178.648c4.49 7.6 8.99 12.425 13.51 14.474 4.52 2.554 9.3 3.848 14.34 3.882 6.56.044 12.37-2.44 17.45-7.452 5.07-5.013 7.63-11.556 7.69-19.63l1.32-196.056 59.73.403-1.46 217.251c-.16 23.214-8.61 42.586-25.35 58.118-16.24 16.04-35.95 23.982-59.14 23.825-31.25-.21-56.6-15.522-76.05-45.933l-111.46-178.649c-4.49-7.6-8.99-12.677-13.51-15.231-4.52-2.049-9.3-3.091-14.34-3.125-6.56-.044-12.37 2.44-17.44 7.453-5.08 5.012-7.65 11.808-7.7 20.387l-1.4 206.653-59.73-.403 1.54-227.848z" fill="#FC466B"/><path d="M1162.5 771.5c0 424.78 334.07 769 746 769s746-344.22 746-769c0-424.779-334.07-769-746-769s-746 344.221-746 769z" stroke="url(#paint1_linear)" stroke-width="5"/></g><defs><linearGradient id="paint0_linear" x1="-740.999" y1="771.5" x2="756.001" y2="771.5" gradientUnits="userSpaceOnUse"><stop offset=".5" stop-color="#16BFFD"/><stop offset=".714" stop-color="#FC466B"/></linearGradient><linearGradient id="paint1_linear" x1="2657" y1="771.5" x2="1160" y2="771.5" gradientUnits="userSpaceOnUse"><stop offset=".5" stop-color="#16BFFD"/><stop offset=".714" stop-color="#FC466B"/></linearGradient></defs></svg>

<svg width="1920" height="1543" viewBox="0 0 1920 1543" fill="none" xmlns="http://www.w3.org/2000/svg">
<g opacity="0.6">
<path d="M41.4657 709.013C41.3056 685.293 49.4881 665.302 66.0131 649.04C82.5381 632.778 102.142 624.57 124.825 624.417C156.076 624.206 181.635 639.427 201.501 670.08L315.359 847.22C319.946 854.76 324.515 859.524 329.066 861.512C333.619 864.004 338.416 865.234 343.457 865.2C350.01 865.156 355.789 862.593 360.796 857.512C365.802 852.431 368.278 845.854 368.224 837.779L366.901 641.71L426.632 641.307L428.098 858.572C428.255 881.788 420.069 901.274 403.54 917.031C387.519 933.29 367.915 941.497 344.729 941.654C313.477 941.865 287.92 926.896 268.057 896.748L154.2 719.608C149.612 712.068 145.041 707.052 140.488 704.559C135.938 702.571 131.142 701.594 126.102 701.628C119.549 701.672 113.769 704.235 108.763 709.316C103.756 714.397 101.282 721.227 101.34 729.806L102.734 936.473L43.0031 936.876L41.4657 709.013Z" fill="#FC466B"/>
<path d="M-24.7084 709.454C-24.8684 685.735 -33.3199 665.858 -50.0628 649.821C-66.8057 633.785 -86.5185 625.843 -109.201 625.996C-140.453 626.207 -165.804 641.771 -185.255 672.687L-296.712 851.335C-301.197 858.935 -305.701 863.76 -310.224 865.809C-314.744 868.363 -319.524 869.657 -324.565 869.691C-331.117 869.735 -336.931 867.251 -342.006 862.239C-347.08 857.226 -349.645 850.683 -349.699 842.609L-351.022 646.553L-410.753 646.956L-409.287 864.207C-409.131 887.421 -400.683 906.793 -383.943 922.325C-367.704 938.365 -347.992 946.307 -324.805 946.15C-293.553 945.94 -268.2 930.628 -248.746 900.217L-137.289 721.568C-132.804 713.968 -128.301 708.891 -123.782 706.337C-119.259 704.288 -114.477 703.246 -109.436 703.212C-102.884 703.168 -97.0699 705.652 -91.9952 710.665C-86.9206 715.677 -84.3543 722.473 -84.2964 731.052L-82.9021 937.705L-23.1711 937.302L-24.7084 709.454Z" fill="#FC466B"/>
<path d="M753.5 771.5C753.5 1196.28 419.434 1540.5 7.5 1540.5C-404.434 1540.5 -738.5 1196.28 -738.5 771.5C-738.5 346.721 -404.434 2.5 7.5 2.5C419.434 2.5 753.5 346.721 753.5 771.5Z" stroke="url(#paint0_linear)" stroke-width="5"/>
<path d="M1874.53 709.013C1874.69 685.293 1866.51 665.302 1849.99 649.04C1833.46 632.778 1813.86 624.57 1791.18 624.417C1759.92 624.206 1734.36 639.427 1714.5 670.08L1600.64 847.22C1596.05 854.76 1591.48 859.524 1586.93 861.512C1582.38 864.004 1577.58 865.234 1572.54 865.2C1565.99 865.156 1560.21 862.593 1555.2 857.512C1550.2 852.431 1547.72 845.854 1547.78 837.779L1549.1 641.71L1489.37 641.307L1487.9 858.572C1487.75 881.788 1495.93 901.274 1512.46 917.031C1528.48 933.29 1548.08 941.497 1571.27 941.654C1602.52 941.865 1628.08 926.896 1647.94 896.748L1761.8 719.608C1766.39 712.068 1770.96 707.052 1775.51 704.559C1780.06 702.571 1784.86 701.594 1789.9 701.628C1796.45 701.672 1802.23 704.235 1807.24 709.316C1812.24 714.397 1814.72 721.227 1814.66 729.806L1813.27 936.473L1873 936.876L1874.53 709.013Z" fill="#FC466B"/>
<path d="M1940.71 709.454C1940.87 685.735 1949.32 665.858 1966.06 649.821C1982.81 633.785 2002.52 625.843 2025.2 625.996C2056.45 626.207 2081.8 641.771 2101.25 672.687L2212.71 851.335C2217.2 858.935 2221.7 863.76 2226.22 865.809C2230.74 868.363 2235.52 869.657 2240.56 869.691C2247.12 869.735 2252.93 867.251 2258.01 862.239C2263.08 857.226 2265.64 850.683 2265.7 842.609L2267.02 646.553L2326.75 646.956L2325.29 864.207C2325.13 887.421 2316.68 906.793 2299.94 922.325C2283.7 938.365 2263.99 946.307 2240.8 946.15C2209.55 945.94 2184.2 930.628 2164.75 900.217L2053.29 721.568C2048.8 713.968 2044.3 708.891 2039.78 706.337C2035.26 704.288 2030.48 703.246 2025.44 703.212C2018.88 703.168 2013.07 705.652 2008 710.665C2002.92 715.677 2000.35 722.473 2000.3 731.052L1998.9 937.705L1939.17 937.302L1940.71 709.454Z" fill="#FC466B"/>
<path d="M1162.5 771.5C1162.5 1196.28 1496.57 1540.5 1908.5 1540.5C2320.43 1540.5 2654.5 1196.28 2654.5 771.5C2654.5 346.721 2320.43 2.5 1908.5 2.5C1496.57 2.5 1162.5 346.721 1162.5 771.5Z" stroke="url(#paint1_linear)" stroke-width="5"/>
</g>
<defs>
<linearGradient id="paint0_linear" x1="-740.999" y1="771.5" x2="756.001" y2="771.5" gradientUnits="userSpaceOnUse">
<stop offset="0.5" stop-color="#16BFFD"/>
<stop offset="0.713542" stop-color="#FC466B"/>
</linearGradient>
<linearGradient id="paint1_linear" x1="2657" y1="771.5" x2="1160" y2="771.5" gradientUnits="userSpaceOnUse">
<stop offset="0.5" stop-color="#16BFFD"/>
<stop offset="0.713542" stop-color="#FC466B"/>
</linearGradient>
</defs>
</svg>
